X:126
T:Prussian Waltz. RH.126
R:Waltz
S:Rev.R.Harrison’s MS,c1815,Cumbria
N:A good exercise for teh second finger. PJH.
O:England
A:Temple Sowerby,Cumbria
Z:vmp.Simon Wilson. Review PJH, 2008.
M:3/8
L:1/16
Q:3/8=50
K:G
D>G|B4A2|G4GB|AcFAGB|D2D2D2|\
d4c2|B4GB|AcFADF|G4:|!
|:GB|AcFAGB|AcFAGB|AcFAGB|D2D2D2|\
d4c2|B4GB|AcFADF|G4:|!
|:D2|GFGABc|d2B2d2|edefge|{e}d2Bded|\
{d}c2Acdc|{c}B2GBdB|ABcAGF|G4:|!
|:Bd|cdAdcd|BdGdBd|cdAdcd|BdGdBd|\
cdAdcd|Bdgfe^d|e2ecAF|G4:|

